modules/micon/icons/MobBatteryCharging0.svg

<svg xmlns="http://www.w3.org/2000/svg" viewBox="0 0 1536 1024"><path d="M1472 448v128h-64v256h-1152v-64h1088v-512h-960v-64h1024v256h64zm-1152-96q0 28.5-9.5 54.5t-26.5 46.75-40.5 35.25-51.5 20.5v323h-64v-323q-28-6-51.5-20.5t-40.5-35.25-26.5-46.75-9.5-54.5v-160h64v-128h64v128h64v-128h64v128h64v160zm-256 0q0 20 7.5 37.5t20.5 30.5 30.5 20.5 37.5 7.5 37.5-7.5 30.5-20.5 20.5-30.5 7.5-37.5v-96h-192v96z"/></svg>

<svg xmlns="http://www.w3.org/2000/svg" viewBox="0 0 1536 1024"><path d="M1472 448v128h-64v256H256v-64h1088V256H384v-64h1024v256h64zM320 352q0 28.5-9.5 54.5T284 453.25t-40.5 35.25T192 509v323h-64V509q-28-6-51.5-20.5T36 453.25 9.5 406.5 0 352V192h64V64h64v128h64V64h64v128h64v160zm-256 0q0 20 7.5 37.5T92 420t30.5 20.5T160 448t37.5-7.5T228 420t20.5-30.5T256 352v-96H64v96z"/></svg>
